X:1
T:Title
%%score 1 { ( 2 4 ) | ( 3 5 6 ) }
L:1/8
M:6/4
K:Eb
V:1 treble nm="Akkordion"
V:2 treble nm="Grand Piano"
V:4 treble 
V:3 treble 
V:5 treble 
V:6 treble 
V:1
 z12[Q:1/4=114] | z12 | z12 | z12 |[M:5/4] z10 |[M:1/4] G2 |[M:6/4] F4 B,2 E4 c2 | B4 E2 G4 G2 | %8
 G6 G6 | C6- C4 C2 | D2 E2 =E2 F4 F2 | G2 A2 =A2 B4 c2 | d6 c6 | B6- B4 B2 | c4 c2 c4 F2 | %15
 B4 B2 B4 B2 | e6 e6 | e6- e4 E2 | %18
 B6 B6[Q:1/4=112][Q:1/4=110][Q:1/4=109][Q:1/4=107][Q:1/4=105][Q:1/4=103][Q:1/4=102][Q:1/4=100][Q:1/4=98][Q:1/4=96][Q:1/4=94][Q:1/4=93][Q:1/4=91][Q:1/4=89][Q:1/4=87] | %19
[M:5/4] E2- E2- E6 |] %20
V:2
 z6 z4 b2 | b6 b6 | b6 z6 | .f6 e6 |[M:5/4] [Ge]2- [Ge]2- [Ge]6 |[M:1/4] G2 |[M:6/4] .F6 z6 | %7
 .B6 z6 | [B,C=EG]2 [CEG]2 [CEG]2 [B,CEG]2 [CEG]2 [CEG]2 | [A,C]2 C2 C2 C2 C2 C2 | z6 .F6 | %11
 G2 A2 =A2 [Bc]2 [Bc]2 [EBc]2 | [FBd]2 [Bd]2 [Bd]2 [EF=Ac]2 [EFAc]2 [Ec]2 | [DFB]2 B2 B2 B2 B2 B2 | %14
 [DAc]2 [Ac]2 [Ac]2 [Ac]2 [Ac]2 [B,DF]2 | [B,EB]2 [EB]2 [B,DAB]2 [B,EGB]2 [EGB]2 [B,EGB]2 | %16
 [A,EA]2 [A,EA]2 [A,EA]2 [=B,EF=A]2 [B,EFA]2 [B,EFA]2 | %17
 [B,EGB]2 [B,EGB]2 [B,EGB]2 [B,EGB]2 .[B,EGB]4 | [B,EG]2 [DF]2 [EG]2 [CDA]2 [DG]2 [DFA]2 | %19
[M:5/4][K:bass] [G,B,E]2- [G,B,E]2- [G,B,E]6 |] %20
V:3
 z6 z4 [Bg]2 | .[=Af]4 A2 .[Ge]4 B2 | .[=Af]4 A2 [Ge]2 [ce]2 [Be]2 | %3
 .[=Ace]4 A2- A2 z2[K:bass] =A,2 |[M:5/4] [E,B,]2- [E,B,]2- [E,B,]6 |[M:1/4] E,2 | %6
[M:6/4] [E,A,B,]2 [E,A,]2 [E,A,]2 E,4- [E,A,E]2 | E2- [E,E]2 E,2 E,4 G2 | z2 B,2 B,2 z2 B,2 B,2 | %9
 z2 A,2 A,2 [E,A,]2 [D,A,]2 [C,A,]2 | [B,,B,]2 [C,A,]2 [_D,G,B,]2 .[=D,B,]4 [D,B,]2 | %11
 B,2- [F,B,D]2 [_G,CE]2 E2 E2 _G,2 | F,6[K:treble][K:bass] z6 | %13
 z2 [_D=E]2[K:treble] [=DF]2 [_EG]2 [EFA]2 G2 | z2 D2 D2 D2 D2 A,2 | z2 B,2 F,2 z2 B,2 _D,2 | %16
 C,2 C,2 C,2 C,2 C,2 C,2 | B,,2 B,,2 B,,2 B,,2 B,,2 E2 | z2 B,2 B,2 z2 B,2 C2 | %19
[M:5/4] E,2 B,,2 G,,2 E,,4 |] %20
V:4
 x12 | z2 B2 f2 z2 B2 g2 | z2 B2 f2 b2 =a2 g2 | z2 F2 f2 z2 G2 F2 |[M:5/4] x10 |[M:1/4] x2 | %6
[M:6/4] z2 B,2 B,2 E4 c2 | z2 G,2 [G,E]2 .[B,EG]6 | x12 | x12 | D2 E2 =E2 z2 D,2 F2 | x12 | x12 | %13
 x12 | x12 | x12 | x12 | x12 | x12 |[M:5/4][K:bass] z2 z4 E,4 |] %20
V:5
 x12 | x12 | x12 | z4 B,2- B,4[K:bass] z2 |[M:5/4] x10 |[M:1/4] x2 |[M:6/4] z6 .G,6 | .[E,G,]6 z6 | %8
 C,6 =E,6 | F,6 z6 | .F,6 z6 | .[E,E]6 .[=G,B,]6 | z2[K:treble] F2 F2[K:bass] F,,2 G,,2 =A,,2 | %13
 B,,12[K:treble] | B,,12 | .G,6 .E,6 | x12 | x12 | B,,6 B,,6 |[M:5/4] x10 |] %20
V:6
 x12 | x12 | x12 | z6 E,6[K:bass] |[M:5/4] x10 |[M:1/4] x2 |[M:6/4] x12 | x12 | x12 | x12 | x12 | %11
 x12 | x2[K:treble] x4[K:bass] x6 | x4[K:treble] x8 | x12 | x12 | x12 | x12 | x12 |[M:5/4] x10 |] %20

